X:1
T:Title
%%score { 1 | 2 }
L:1/8
Q:1/4=100
M:3/4
K:F
V:1 treble nm="Grand Piano"
V:2 bass 
V:1
 [DF]2 [DB]2 [DG]2 | A>G _E4 | _E2 A2 E2 | [DG]>[DF] [DF]4 | [DF]2 [DB]2 [Fd]2 | %5
w: J.~Lincoln~Hall * *|||||
 [Fd]2 [Fc]2 [CFA]2 | [DFB]2 [CEA]2 [B,EG]2 | [A,F]6 | [DF]2 [DB]2 [DG]2 | A>G _E4 | _E2 A2 E2 | %11
w: ||||||
 [DG]>[DF] [DF]4 | B2 c2 d2 | _e2 [Ge]2 [Gc]2 | B2 B2 A2 | [DB]6 | [Dd]2 [DB]2 D2 | F>E _E4 | %18
w: |||||||
 c2 A2 _E2 | [^CG]>[CE] [DF]4 | B2 A2 G2 | [Fd]>[Fc] [Fc]2 [DFB]2 | [CFA]4 [B,EG]2 | [A,F]6 | %24
w: ||||||
 [Dd]2 [DB]2 D2 | F>E _E4 | c2 A2 _E2 | [^CG]>[CE] [DF]4 | d2 _e2 d2 | [Gc]>[Gd] [G_e]4 | %30
w: ||||||
 d2 d2 c2 | [DB]6 |] %32
w: ||
V:2
 [B,,B,]2 [B,,B,]2 [B,,B,]2 | [F,C_E]>[F,B,E] [F,A,C]4 | [F,A,C]2 [F,C_E]2 [F,A,C]2 | %3
 [B,,B,]>[B,,B,] [B,,B,]4 | [B,,B,]2 [B,,B,]2 [B,,B,]2 | [C,A,]2 [C,A,]2 C,2 | C,2 C,2 C,2 | F,6 | %8
 [B,,B,]2 [B,,B,]2 [B,,B,]2 | [F,C_E]>[F,B,E] [F,A,C]4 | [F,A,C]2 [F,C_E]2 [F,A,C]2 | %11
 [B,,B,]>[B,,B,] [B,,B,]4 | [B,DF]2 [A,CF]2 [_A,B,F]2 | [G,B,_E]2 [_E,B,]2 [E,E]2 | %14
 [F,DF]2 [F,^CE]2 [F,=C_E]2 | [B,,B,]6 | [B,,F,]2 [B,,F,]2 [B,,F,B,]2 | [F,D]>[F,G,^C] [F,A,=C]4 | %18
 [F,A,_E]2 [F,CE]2 [F,A,C]2 | [B,,B,]>[B,,B,] [B,,B,]4 | [G,B,D]2 [G,B,D]2 [G,B,D]2 | %21
 [C,A,]>[C,A,] [C,A,]2 C,2 | C,4 C,2 | F,6 | [B,,F,]2 [B,,F,]2 [B,,F,B,]2 | %25
 [F,D]>[F,G,^C] [F,A,=C]4 | [F,A,_E]2 [F,CE]2 [F,A,C]2 | [B,,B,]>[B,,B,] [B,,B,]4 | %28
 [B,DF]2 [A,CF]2 [B,DF]2 | [_E,C]>[D,=B,] [C,C]4 | [F,B,F]2 [F,G,F]2 [F,A,_E]2 | [B,,B,]6 |] %32

